svg/furkot/public-domain/railroadcrossing.svg

<svg viewBox="0 0 512 512" xmlns="http://www.w3.org/2000/svg"><path d="m181.274 2.56h9.492c-1.198 10.235-2.437 20.792-3.712 31.683h34.442c11.469 0 22.979 0 34.53.061h34.421 34.453c-1.285-10.952-2.514-21.448-3.722-31.744h9.492c1.362 10.291 2.79 20.792 4.255 31.744 1.684 12.564 3.466 25.702 5.314 39.434 1.736 12.933 3.549 26.399 5.443 40.443 2.186 16.318 4.5 33.388 6.912 51.4 2.289 17.177 4.721 35.021 7.234 53.831 2.929 21.904 6.073 45.108 9.365 69.709 3.179 23.516 6.523 48.512 10.071 74.916 4.188 31.017 8.663 64.225 13.466 99.983 1.966 14.608 4.05 30.034 6.123 45.42-6.062 0-12.124 0-18.15 0-1.813-15.386-3.63-30.817-5.34-45.42-19.948 0-39.829 0-59.705 0-19.906 0-39.808 0-59.648 0-19.983 0-39.91 0-59.812 0-19.881 0-39.787 0-59.668 0-1.71 14.608-3.528 30.034-5.34 45.42-6.062 0-12.13 0-18.151 0 2.084-15.386 4.168-30.817 6.129-45.42 4.803-35.758 9.283-68.971 13.466-99.983 3.548-26.404 6.912-51.4 10.086-74.916 3.318-24.601 6.436-47.826 9.385-69.749 2.534-18.77 4.951-36.675 7.255-53.853 2.437-17.986 4.726-35.02 6.912-51.338 1.9-14.085 3.712-27.576 5.463-40.545 1.838-13.696 3.61-26.88 5.304-39.393 1.449-10.891 2.878-21.448 4.235-31.683zm-9.278 0c-3.174 0-6.328 0-9.487 0-1.715 10.235-3.487 20.792-5.325 31.683-9.697 0-19.389 0-29.02 0-2.739 12.518-5.607 25.702-8.602 39.393h30.981c-2.186 12.974-4.454 26.399-6.825 40.545-11.018 0-22.01 0-32.983 0-3.548 16.277-7.26 33.352-11.197 51.338h35.538c-2.908 17.137-5.924 35.083-9.078 53.832-12.744 0-25.492 0-38.175 0-4.787 21.944-9.84 45.169-15.201 69.77h41.621c-3.958 23.516-8.167 48.512-12.621 74.916-15.14 0-30.28 0-45.333 0-6.768 31.017-14.003 64.225-21.801 99.983h50.284c-2.453 14.608-5.054 30.034-7.649 45.42h18.145c2.329-15.386 4.664-30.817 6.871-45.42 5.422-35.758 10.434-68.971 15.135-99.983 4.003-26.404 7.797-51.4 11.346-74.916 3.732-24.601 7.255-47.826 10.557-69.749 2.847-18.77 5.55-36.716 8.146-53.853 2.724-17.986 5.325-35.02 7.777-51.338 2.14-14.146 4.183-27.576 6.144-40.545 2.064-13.696 4.06-26.88 5.965-39.393 1.649-10.891 3.241-21.448 4.787-31.683zm177.434 0c-3.175 0-6.329 0-9.493 0 1.552 10.291 3.139 20.792 4.793 31.744 1.899 12.564 3.896 25.702 5.98 39.434 1.961 12.933 4.004 26.399 6.123 40.51 2.453 16.251 5.054 33.326 7.783 51.333 2.575 17.177 5.273 35.021 8.12 53.831 3.318 21.904 6.83 45.108 10.542 69.709 3.569 23.516 7.327 48.512 11.326 74.916 4.7 31.017 9.728 64.225 15.134 99.983 2.212 14.608 4.542 30.034 6.897 45.42h18.125c-2.596-15.386-5.202-30.817-7.655-45.42h50.412c-7.793-35.758-15.017-68.971-21.781-99.983-15.18 0-30.315 0-45.455 0-4.46-26.404-8.658-51.4-12.621-74.916h41.744c-5.371-24.601-10.415-47.805-15.181-69.709-12.79 0-25.534 0-38.283 0-3.174-18.81-6.19-36.654-9.077-53.831h35.625c-3.943-17.987-7.655-35.082-11.203-51.333-11.033 0-22.047 0-33.06 0-2.375-14.106-4.638-27.577-6.83-40.51h31.058c-2.99-13.737-5.852-26.854-8.576-39.434-9.733 0-19.43 0-29.122 0-1.813-10.952-3.615-21.453-5.325-31.744zm-93.41 71.117c-12.308 0-24.586 0-36.833 0-12.272 0-24.525 0-36.777-.041-1.505 13.015-3.092 26.46-4.746 40.545h39.127 39.229 39.107s26.092 0 39.168 0c-1.649-14.044-3.241-27.535-4.772-40.443-12.267-.061-24.519-.061-36.772-.061-12.252 0-24.519 0-36.731 0zm0 91.904c-14.126 0-28.19 0-42.26 0-14.049 0-28.088 0-42.132 0-2.023 17.116-4.127 35.021-6.334 53.791h45.312c15.099 0 30.239.04 45.42.04h45.271 45.337c-2.191-18.81-4.295-36.695-6.308-53.831-14.069 0-28.139 0-42.178 0-14.06 0-28.124 0-42.128 0zm-.02 123.54c-16.538 0-33.039 0-49.5 0-16.476 0-32.937 0-49.413 0-2.765 23.516-5.694 48.512-8.812 74.916h53.811 53.914 53.77s35.866 0 53.852 0c-3.113-26.404-6.041-51.4-8.811-74.916-16.497 0-32.973 0-49.434 0-16.455 0-32.937 0-49.377 0z"/></svg>

<svg xmlns="http://www.w3.org/2000/svg" viewBox="0 0 512 512"><path d="M181.274 2.56C184.428 2.56 187.607 2.56 190.766 2.56 189.568 12.795 188.329 23.352 187.054 34.243 198.538 34.243 210.007 34.243 221.496 34.243 232.965 34.243 244.475 34.243 256.026 34.304 267.474 34.304 278.943 34.304 290.447 34.304 301.916 34.304 313.38 34.304 324.9 34.304 323.615 23.352 322.386 12.856 321.178 2.56 324.316 2.56 327.491 2.56 330.67 2.56 332.032 12.851 333.46 23.352 334.925 34.304 336.609 46.868 338.391 60.006 340.239 73.738 341.975 86.671 343.788 100.137 345.682 114.181 347.868 130.499 350.182 147.569 352.594 165.581 354.883 182.758 357.315 200.602 359.828 219.412 362.757 241.316 365.901 264.52 369.193 289.121 372.372 312.637 375.716 337.633 379.264 364.037 383.452 395.054 387.927 428.262 392.73 464.02 394.696 478.628 396.78 494.054 398.853 509.44 392.791 509.44 386.729 509.44 380.703 509.44 378.89 494.054 377.073 478.623 375.363 464.02 355.415 464.02 335.534 464.02 315.658 464.02 295.752 464.02 275.85 464.02 256.01 464.02 236.027 464.02 216.1 464.02 196.198 464.02 176.317 464.02 156.411 464.02 136.53 464.02 134.82 478.628 133.002 494.054 131.19 509.44 125.128 509.44 119.06 509.44 113.039 509.44 115.123 494.054 117.207 478.623 119.168 464.02 123.971 428.262 128.451 395.049 132.634 364.037 136.182 337.633 139.546 312.637 142.72 289.121 146.038 264.52 149.156 241.295 152.105 219.372 154.639 200.602 157.056 182.697 159.36 165.519 161.797 147.533 164.086 130.499 166.272 114.181 168.172 100.096 169.984 86.605 171.735 73.636 173.573 59.94 175.345 46.756 177.039 34.243 178.488 23.352 179.917 12.795 181.274 2.56L181.274 2.56ZM171.996 2.56C168.822 2.56 165.668 2.56 162.509 2.56 160.794 12.795 159.022 23.352 157.184 34.243 147.487 34.243 137.795 34.243 128.164 34.243 125.425 46.761 122.557 59.945 119.562 73.636 129.853 73.636 140.211 73.636 150.543 73.636 148.357 86.61 146.089 100.035 143.718 114.181 132.7 114.181 121.708 114.181 110.735 114.181 107.187 130.458 103.475 147.533 99.538 165.519 111.334 165.519 123.197 165.519 135.076 165.519 132.168 182.656 129.152 200.602 125.998 219.351 113.254 219.351 100.506 219.351 87.823 219.351 83.036 241.295 77.983 264.52 72.622 289.121 86.441 289.121 100.347 289.121 114.243 289.121 110.285 312.637 106.076 337.633 101.622 364.037 86.482 364.037 71.342 364.037 56.289 364.037 49.521 395.054 42.286 428.262 34.488 464.02 51.195 464.02 67.983 464.02 84.772 464.02 82.319 478.628 79.718 494.054 77.123 509.44 83.144 509.44 89.206 509.44 95.268 509.44 97.597 494.054 99.932 478.623 102.139 464.02 107.561 428.262 112.573 395.049 117.274 364.037 121.277 337.633 125.071 312.637 128.62 289.121 132.352 264.52 135.875 241.295 139.177 219.372 142.024 200.602 144.727 182.656 147.323 165.519 150.047 147.533 152.648 130.499 155.1 114.181 157.24 100.035 159.283 86.605 161.244 73.636 163.308 59.94 165.304 46.756 167.209 34.243 168.858 23.352 170.45 12.795 171.996 2.56L171.996 2.56ZM349.43 2.56C346.255 2.56 343.101 2.56 339.937 2.56 341.489 12.851 343.076 23.352 344.73 34.304 346.629 46.868 348.626 60.006 350.71 73.738 352.671 86.671 354.714 100.137 356.833 114.248 359.286 130.499 361.887 147.574 364.616 165.581 367.191 182.758 369.889 200.602 372.736 219.412 376.054 241.316 379.566 264.52 383.278 289.121 386.847 312.637 390.605 337.633 394.604 364.037 399.304 395.054 404.332 428.262 409.738 464.02 411.95 478.628 414.28 494.054 416.635 509.44 422.636 509.44 428.692 509.44 434.76 509.44 432.164 494.054 429.558 478.623 427.105 464.02 443.894 464.02 460.687 464.02 477.517 464.02 469.724 428.262 462.5 395.049 455.736 364.037 440.556 364.037 425.421 364.037 410.281 364.037 405.821 337.633 401.623 312.637 397.66 289.121 411.556 289.121 425.462 289.121 439.404 289.121 434.033 264.52 428.989 241.316 424.223 219.412 411.433 219.412 398.689 219.412 385.94 219.412 382.766 200.602 379.75 182.758 376.863 165.581 388.721 165.581 400.584 165.581 412.488 165.581 408.545 147.594 404.833 130.499 401.285 114.248 390.252 114.248 379.238 114.248 368.225 114.248 365.85 100.142 363.587 86.671 361.395 73.738 371.753 73.738 382.106 73.738 392.453 73.738 389.463 60.001 386.601 46.884 383.877 34.304 374.144 34.304 364.447 34.304 354.755 34.304 352.942 23.352 351.14 12.851 349.43 2.56L349.43 2.56ZM256.02 73.677C243.712 73.677 231.434 73.677 219.187 73.677 206.915 73.677 194.662 73.677 182.41 73.636 180.905 86.651 179.318 100.096 177.664 114.181 190.7 114.181 203.756 114.181 216.791 114.181 229.827 114.181 242.908 114.181 256.02 114.181 269.041 114.181 282.066 114.181 295.127 114.181S321.219 114.181 334.295 114.181C332.646 100.137 331.054 86.646 329.523 73.738 317.256 73.677 305.004 73.677 292.751 73.677 280.499 73.677 268.232 73.677 256.02 73.677L256.02 73.677ZM256.02 165.581C241.894 165.581 227.83 165.581 213.76 165.581 199.711 165.581 185.672 165.581 171.628 165.581 169.605 182.697 167.501 200.602 165.294 219.372 180.393 219.372 195.487 219.372 210.606 219.372 225.705 219.372 240.845 219.412 256.026 219.412 271.084 219.412 286.203 219.412 301.297 219.412 316.396 219.412 331.494 219.412 346.634 219.412 344.443 200.602 342.339 182.717 340.326 165.581 326.257 165.581 312.187 165.581 298.148 165.581 284.088 165.581 270.024 165.581 256.02 165.581L256.02 165.581ZM256 289.121C239.462 289.121 222.961 289.121 206.5 289.121 190.024 289.121 173.563 289.121 157.087 289.121 154.322 312.637 151.393 337.633 148.275 364.037 166.221 364.037 184.141 364.037 202.086 364.037 220.006 364.037 237.998 364.037 256 364.037 273.905 364.037 291.85 364.037 309.77 364.037S345.636 364.037 363.622 364.037C360.509 337.633 357.581 312.637 354.811 289.121 338.314 289.121 321.838 289.121 305.377 289.121 288.922 289.121 272.44 289.121 256 289.121Z"/></svg>
